X: 23681
T: Linnane Terrace
R: jig
M: 6/8
K: Gmajor
g|dcB ABc|BBG GGB|ABA ABc|dge fdg|
dcB A2c|BBG DGB|ABc dge|faf gfe|
ded ABc|BGG GGB|A2 A ABc|dge fdg|
dcB A2 c|BBG GDB|ABc dge|faf gba||
g2 a gfe|d2 g dcB|ABA ABc|dge fga|
g2a gfe|d2 g dBG|ABc dgd|cBA GB/c/d|
g2a gfe|d2 g dcB|ABA ABc|dge fga|
g2a gfe|dBG dBG|ABc dgd|cBA G3||

